X: 032229
T: Cummilum
S: "Jackson's Celebrated Irish Tunes"
L: 1/8
M: 9/8
R: slip jig
Q: 1/4=160
K: D
A>GF F2F F2F |A>GF F2F F2F |AGF F2F F2F |\
E/F/GE E2F G2E :|
D2 (3E/F/G/ A2F A2F |D2 (3E/F/G/ A2F G2E |\
D2 (3E/F/G/ A2F A2F |EFE E2F G2E :|
DFA dAF dAF |DFA dAF G2E |DFA dAF dAF |\
E>FE E2F G2E :|
